Catalina-light/actions/22/filename-group-length.svg

<svg xmlns="http://www.w3.org/2000/svg" viewBox="0 0 22 22">
  <defs id="defs3051">
    <style type="text/css" id="current-color-scheme">
      .ColorScheme-Text {
        color:#4d4d4d
      }
      </style>
  </defs>
 <path 
     style="fill:currentColor;fill-opacity:1;stroke:none"      
	 class="ColorScheme-Text"
        d="M 7.9257812 2.8027344 C 7.3602313 2.8027344 6.9023437 3.262565 6.9023438 3.828125 L 6.9023438 4.8535156 L 7.9257812 4.8535156 L 7.9257812 4.3398438 C 7.9257812 4.0570638 8.1566731 3.828125 8.4394531 3.828125 L 17.660156 3.828125 C 17.942936 3.828125 18.171875 4.0570638 18.171875 4.3398438 L 18.171875 13.560547 C 18.171875 13.843317 17.942936 14.074219 17.660156 14.074219 L 17.146484 14.074219 L 17.146484 15.097656 L 18.171875 15.097656 C 18.737425 15.097656 19.197266 14.639769 19.197266 14.074219 L 19.197266 3.828125 C 19.197266 3.262565 18.737425 2.8027344 18.171875 2.8027344 L 7.9257812 2.8027344 z M 3.828125 5.8769531 C 3.262565 5.8769531 2.8027344 6.3367837 2.8027344 6.9023438 L 2.8027344 18.171875 C 2.8027344 18.737435 3.262565 19.197266 3.828125 19.197266 L 15.097656 19.197266 C 15.663216 19.197266 16.123047 18.737435 16.123047 18.171875 L 16.123047 6.9023438 C 16.123047 6.3367838 15.663216 5.8769531 15.097656 5.8769531 L 3.828125 5.8769531 z M 9.3378906 8.6640625 C 9.8938806 8.6640625 10.423671 8.7735944 10.931641 8.9902344 C 11.947981 9.4237044 12.682904 10.158086 13.115234 11.166016 C 13.333024 11.673506 13.443359 12.201923 13.443359 12.757812 C 13.443359 13.313802 13.332914 13.846006 13.115234 14.353516 C 12.682814 15.361346 11.947981 16.099723 10.931641 16.533203 C 10.423751 16.749733 9.8938006 16.861328 9.3378906 16.861328 C 8.7819906 16.861328 8.2516506 16.750893 7.7441406 16.533203 C 6.7363106 16.100783 5.9975431 15.363066 5.5644531 14.353516 C 5.3474231 13.847626 5.2421875 13.313802 5.2421875 12.757812 C 5.2421875 12.201923 5.3474231 11.671796 5.5644531 11.166016 C 5.9975431 10.156466 6.7362206 9.4225544 7.7441406 8.9902344 C 8.2515606 8.7725444 8.7820006 8.6640625 9.3378906 8.6640625 z M 9.0820312 10.167969 C 8.8729612 10.167969 8.703125 10.337805 8.703125 10.546875 L 8.703125 13.335938 C 8.703125 13.456307 8.7609294 13.563123 8.8496094 13.632812 L 10.478516 14.900391 C 10.548216 14.951091 10.628588 14.982422 10.710938 14.982422 C 10.824977 14.982422 10.940076 14.932971 11.009766 14.837891 C 11.136486 14.673161 11.110483 14.433361 10.939453 14.306641 L 9.4628906 13.150391 L 9.4628906 10.546875 C 9.4628906 10.337805 9.2911013 10.167969 9.0820312 10.167969 z "
     />
</svg>

<svg viewBox="0 0 22 22" xmlns="http://www.w3.org/2000/svg">
<defs>
<style id="current-color-scheme" type="text/css">.ColorScheme-Text {
        color:#363636
      }</style>
</defs>
<path class="ColorScheme-Text" d="m7.9258 2.8027c-0.56555 0-1.0234 0.45983-1.0234 1.0254v1.0254h1.0234v-0.51367c0-0.28278 0.23089-0.51172 0.51367-0.51172h9.2207c0.28278 0 0.51172 0.22894 0.51172 0.51172v9.2207c0 0.28277-0.22894 0.51367-0.51172 0.51367h-0.51367v1.0234h1.0254c0.56555 0 1.0254-0.45789 1.0254-1.0234v-10.246c0-0.56556-0.45984-1.0254-1.0254-1.0254h-10.246zm-4.0977 3.0742c-0.56556 0-1.0254 0.45983-1.0254 1.0254v11.27c0 0.56556 0.45983 1.0254 1.0254 1.0254h11.27c0.56556 0 1.0254-0.45983 1.0254-1.0254v-11.27c0-0.56556-0.45983-1.0254-1.0254-1.0254h-11.27zm5.5098 2.7871c0.55599 0 1.0858 0.10953 1.5938 0.32617 1.0163 0.43347 1.7513 1.1679 2.1836 2.1758 0.21779 0.50749 0.32812 1.0359 0.32812 1.5918 0 0.55599-0.11044 1.0882-0.32812 1.5957-0.43242 1.0078-1.1673 1.7462-2.1836 2.1797-0.50789 0.21653-1.0378 0.32812-1.5938 0.32812-0.5559 0-1.0862-0.11044-1.5938-0.32812-1.0078-0.43242-1.7466-1.1701-2.1797-2.1797-0.21703-0.50589-0.32227-1.0397-0.32227-1.5957 0-0.55589 0.10524-1.086 0.32227-1.5918 0.43309-1.0096 1.1718-1.7435 2.1797-2.1758 0.50742-0.21769 1.0379-0.32617 1.5938-0.32617zm-0.25586 1.5039c-0.20907 0-0.37891 0.16984-0.37891 0.37891v2.7891c0 0.12037 0.057804 0.22718 0.14648 0.29687l1.6289 1.2676c0.0697 0.0507 0.15007 0.082031 0.23242 0.082031 0.11404 0 0.22914-0.049451 0.29883-0.14453 0.12672-0.16473 0.10072-0.40453-0.070313-0.53125l-1.4766-1.1562v-2.6035c0-0.20907-0.17179-0.37891-0.38086-0.37891z" fill="#363636"/>
</svg>
